Flat-Remix-Dark/apps/scalable/ksame.svg

<svg xmlns="http://www.w3.org/2000/svg" xmlns:xlink="http://www.w3.org/1999/xlink" width="384pt" height="384pt" version="1.1" viewBox="0 0 384 384"> <defs> <filter id="alpha" width="100%" height="100%" x="0%" y="0%" filterUnits="objectBoundingBox"> <feColorMatrix in="SourceGraphic" type="matrix" values="0 0 0 0 1 0 0 0 0 1 0 0 0 0 1 0 0 0 1 0"/> </filter> <mask id="mask0"> <g filter="url(#alpha)"> <rect width="384" height="384" x="0" y="0" style="fill:rgb(0%,0%,0%);fill-opacity:0.2"/> </g> </mask> <clipPath id="clip1"> <rect width="384" height="384" x="0" y="0"/> </clipPath> <g id="surface5" clip-path="url(#clip1)"> <path style="fill:rgb(0%,0%,0%)" d="M 24.304688 191.554688 C 23.421875 215.089844 27.324219 239.160156 36.984375 262.40625 C 72.671875 348.292969 170.546875 388.710938 256.433594 353.023438 C 323.023438 325.347656 362.050781 260.304688 359.710938 192.445312 C 357.335938 255.855469 319.078125 314.992188 256.433594 341.023438 C 170.546875 376.710938 72.671875 336.316406 36.984375 250.429688 C 28.960938 231.132812 24.984375 211.226562 24.304688 191.554688 Z M 24.304688 191.554688"/> </g> <mask id="mask1"> <g filter="url(#alpha)"> <rect width="384" height="384" x="0" y="0" style="fill:rgb(0%,0%,0%);fill-opacity:0.2"/> </g> </mask> <clipPath id="clip2"> <rect width="384" height="384" x="0" y="0"/> </clipPath> <g id="surface8" clip-path="url(#clip2)"> <path style="fill:rgb(100.000%,100.000%,100.000%)" d="M 193.089844 23.976562 C 171.273438 23.863281 149.039062 28.039062 127.570312 36.960938 C 60.984375 64.628906 21.953125 129.679688 24.304688 197.542969 C 24.308594 197.464844 24.3125 197.386719 24.316406 197.308594 C 24.492188 131.730469 63.03125 69.78125 127.570312 42.960938 C 149.039062 34.039062 171.273438 29.863281 193.089844 29.976562 C 258.515625 30.3125 320.253906 69.167969 347.027344 133.582031 C 355.289062 153.464844 359.304688 173.953125 359.753906 194.191406 C 360.035156 172.011719 356.109375 149.433594 347.027344 127.582031 C 320.253906 63.167969 258.515625 24.3125 193.089844 23.976562 Z M 193.089844 23.976562"/> </g> </defs> <g> <use mask="url(#mask0)" xlink:href="#surface5"/> <path style="fill:rgb(100.000%,100.000%,100.000%)" d="M 347.027344 127.570312 C 311.335938 41.683594 213.472656 1.277344 127.585938 36.960938 C 41.699219 72.652344 1.292969 170.515625 36.976562 256.402344 C 72.664062 342.289062 170.542969 382.695312 256.417969 347.007812 C 342.304688 311.316406 382.710938 213.453125 347.019531 127.566406 Z M 347.027344 127.570312"/> <path style="fill:rgb(99.215%,28.627%,28.627%)" d="M 193.085938 23.980469 C 172.851562 23.878906 152.292969 27.519531 132.277344 35.160156 L 174.941406 147.152344 C 180.386719 145.070312 186.171875 143.996094 192.003906 143.984375 C 197.839844 144.003906 203.621094 145.085938 209.070312 147.179688 L 251.753906 35.113281 C 233.140625 28.027344 213.316406 24.085938 193.085938 23.980469 Z M 35.207031 132.238281 C 27.566406 152.253906 23.921875 172.8125 24.027344 193.042969 C 24.128906 213.277344 28.097656 233.125 35.183594 251.738281 L 147.175781 209.078125 C 145.089844 203.621094 144.015625 197.828125 144.007812 191.988281 C 144.03125 186.144531 145.121094 180.351562 147.222656 174.898438 Z M 348.828125 132.238281 L 236.839844 174.898438 C 238.925781 180.355469 240 186.144531 240.007812 191.988281 C 239.984375 197.816406 238.902344 203.589844 236.8125 209.027344 L 348.851562 251.738281 C 355.941406 233.125 359.878906 213.277344 359.988281 193.042969 C 360.09375 172.8125 356.46875 152.253906 348.828125 132.238281 Z M 174.941406 236.796875 L 132.277344 348.808594 C 152.292969 356.453125 172.851562 360.101562 193.085938 359.996094 C 213.316406 359.886719 233.140625 355.949219 251.753906 348.859375 L 209.09375 236.820312 C 203.636719 238.910156 197.847656 239.980469 192.003906 239.988281 C 186.167969 239.972656 180.386719 238.890625 174.941406 236.796875 Z M 174.941406 236.796875"/> <use mask="url(#mask1)" xlink:href="#surface8"/> </g> </svg>

<svg width="512" height="512" version="1.1" viewBox="0 0 384 384" xmlns="http://www.w3.org/2000/svg"><path d="m347.03 127.57c-35.691-85.887-133.55-126.29-219.44-90.609-85.887 35.691-126.29 133.55-90.609 219.44 35.688 85.887 133.57 126.29 219.44 90.605 85.887-35.691 126.29-133.55 90.602-219.44z" fill="#fff"/><path transform="scale(.75)" d="m257.45 32.002c-29.08-0.14941-58.709 5.4043-87.338 17.299-87.946 36.547-140.12 121.99-138.05 211.54 1.8767-85.855 53.381-166.35 138.05-201.54 114.52-47.578 245 6.2969 292.59 120.81l-0.01171-0.00586c11.047 26.582 16.617 54.025 17.24 81.092 0.66584-30.281-4.8304-61.229-17.24-91.092l0.01171 0.00586c-35.691-85.887-118.01-137.66-205.25-138.11z" opacity=".1" stroke-width="1.3333"/><path d="m193.08 23.993c-20.234-0.10156-40.793 3.5391-60.809 11.18l42.664 111.99c5.4453-2.082 11.23-3.1562 17.062-3.168 5.8359 0.0195 11.617 1.1016 17.066 3.1953l42.684-112.07c-18.613-7.0859-38.438-11.027-58.668-11.133zm-157.88 108.26c-7.6406 20.016-11.285 40.574-11.18 60.805 0.10156 20.234 4.0703 40.082 11.156 58.695l111.99-42.66c-2.0859-5.457-3.1602-11.25-3.168-17.09 0.0234-5.8438 1.1133-11.637 3.2148-17.09zm313.62 0-111.99 42.66c2.0859 5.457 3.1602 11.246 3.168 17.09-0.0234 5.8281-1.1055 11.602-3.1953 17.039l112.04 42.711c7.0898-18.613 11.027-38.461 11.137-58.695 0.10547-20.23-3.5195-40.789-11.16-60.805zm-173.89 104.56-42.664 112.01c20.016 7.6445 40.574 11.293 60.809 11.188 20.23-0.10938 40.055-4.0469 58.668-11.137l-42.66-112.04c-5.457 2.0898-11.246 3.1602-17.09 3.168-5.8359-0.0156-11.617-1.0977-17.062-3.1914z" fill="#fc4848"/><path transform="scale(.75)" d="m32.066 250.84c-0.66165 30.269 4.8327 61.201 17.234 91.051 47.583 114.52 178.09 168.39 292.59 120.81 87.933-36.542 140.1-121.96 138.04-211.5-1.8875 85.84-53.388 166.32-138.04 201.5-114.5 47.583-245.01-6.293-292.59-120.81-11.039-26.569-16.608-53.997-17.234-81.051z" opacity=".3" stroke-width="1.3333"/><path transform="scale(.75)" d="m257.44 31.982v0.0078c-26.979-0.13541-54.39 4.7184-81.078 14.906l3.3398 8.7676c25.632-9.3382 51.883-13.804 77.738-13.674v-0.0078c25.768 0.13502 51.038 4.9473 74.883 13.613l3.3398-8.7695c-24.817-9.4479-51.249-14.702-78.223-14.844z" fill="#fff" opacity=".3" stroke-width="1.3333"/></svg>
